src/cmd/sc_crookrotate.svg

<svg viewBox="0 0 16 16" xmlns="http://www.w3.org/2000/svg">/&gt;<path d="m5 2c-1.0354553 0-2.0344755.0321673-3 .09375v.09375.90625 8.90625.4375.5625c.96813-.0525 1.953-.09375 3-.09375 2.4739369 0 4.7098874.171728 6.59375.4375.308898.04703.660721.120014.955078.171875.0036-.0061.976928-7.0447225 1.447266-10.5273438-3.18903-.6571245-6.3273746-.9777198-8.996094-.9882812zm0 1c3.0919126 0 5.801541.2553833 7.90625.65625l-1.1875 8.78125c-1.9583894-.325199-4.2342452-.53125-6.71875-.53125-.6903067 0-1.3412133.03472-2 .0625v-8.90625c.6562212-.0277778 1.3019969-.0625 2-.0625zm.4238281 2.5-1.4238281 1.7070312 1.4238281 1.7070313v-.8535156c1.86052 0 3.1455163.2683656 4.4726563.6660156l-.1777344.7734375 1.734375-1.1992188-1.001953-2.0800781-.177734.7988281c-1.3745605-.39449-3.0827299-.6660156-4.8496099-.6660156z" fill="#232629"/></svg>

<?xml version="1.0" encoding="UTF-8" standalone="no"?>
<svg
   xmlns:dc="http://purl.org/dc/elements/1.1/"
   xmlns:cc="http://creativecommons.org/ns#"
   xmlns:rdf="http://www.w3.org/1999/02/22-rdf-syntax-ns#"
   xmlns:svg="http://www.w3.org/2000/svg"
   xmlns="http://www.w3.org/2000/svg"
   xmlns:sodipodi="http://sodipodi.sourceforge.net/DTD/sodipodi-0.dtd"
   xmlns:inkscape="http://www.inkscape.org/namespaces/inkscape"
   viewBox="0 0 16 16"
   version="1.1"
   id="svg4"
   sodipodi:docname="sc_crookrotate.svg"
   inkscape:export-filename="/home/jupiter007/Libreoffice yaru theme fullcolor/build/cmd/sc_crookrotate.png"
   inkscape:export-xdpi="96"
   inkscape:export-ydpi="96"
   inkscape:version="0.92.5 (2060ec1f9f, 2020-04-08)"><metadata
   id="metadata10">
  <rdf:RDF>
    <cc:Work
       rdf:about="">
      <dc:format>image/svg+xml</dc:format>
      <dc:type
         rdf:resource="http://purl.org/dc/dcmitype/StillImage" />
    </cc:Work>
  </rdf:RDF>
</metadata>
<defs
   id="defs8" />
<sodipodi:namedview
   pagecolor="#ffffff"
   bordercolor="#666666"
   borderopacity="1"
   objecttolerance="10"
   gridtolerance="10"
   guidetolerance="10"
   inkscape:pageopacity="0"
   inkscape:pageshadow="2"
   inkscape:window-width="1920"
   inkscape:window-height="1011"
   id="namedview6"
   showgrid="true"
   inkscape:zoom="29.5"
   inkscape:cx="4.5730917"
   inkscape:cy="8.2263825"
   inkscape:window-x="1920"
   inkscape:window-y="32"
   inkscape:window-maximized="1"
   inkscape:current-layer="svg4">
  <inkscape:grid
     type="xygrid"
     id="grid836" />
</sodipodi:namedview>
/&gt;<path
   style="fill:#000000;stroke:#000000;opacity:0.6;stroke-width:2;stroke-miterlimit:4;stroke-dasharray:none;stroke-linejoin:round"
   id="path823"
   d="M 5,2 C 3.9645447,2 2.9655245,2.0321673 2,2.09375 V 2.1875 3.09375 12 12.4375 13 c 0.96813,-0.0525 1.953,-0.09375 3,-0.09375 2.4739369,0 4.7098874,0.171728 6.59375,0.4375 0.308898,0.04703 0.660721,0.120014 0.955078,0.171875 0.0036,-0.0061 0.976928,-7.0447225 1.447266,-10.5273438 C 10.807064,2.3311567 7.6687194,2.0105614 5,2 Z" />
<path
   d="M 5,2 C 3.9645447,2 2.9655245,2.0321673 2,2.09375 V 2.1875 3.09375 12 12.4375 13 c 0.96813,-0.0525 1.953,-0.09375 3,-0.09375 2.4739369,0 4.7098874,0.171728 6.59375,0.4375 0.308898,0.04703 0.660721,0.120014 0.955078,0.171875 0.0036,-0.0061 0.976928,-7.0447225 1.447266,-10.5273438 C 10.807064,2.3311567 7.6687194,2.0105614 5,2 Z"
   id="path821"
   style="fill:#ffffff" />
<path
   d="M 5.4238281,5.5 4,7.2070312 5.4238281,8.9140625 V 8.0605469 c 1.86052,0 3.1455163,0.2683656 4.4726563,0.6660156 L 9.71875,9.5 11.453125,8.3007812 10.451172,6.2207031 10.273438,7.0195312 C 8.8988775,6.6250412 7.1907081,6.3535156 5.4238281,6.3535156 Z"
   id="path2"
   style="fill:#232629;fill-opacity:1" />
</svg>
